X:243
T:Reel 243
M:4/4
K:Gmaj
L:1/8
d|Bdgd gdgd|Bdgd BAAd|Bdgd BdGd|egdB BAAd|Bdgd BGGd|Bdgd BAAc|Bdgd gabc'|d'bc'a bgg|b|d'bgb c'bc'a|d'bag faaz|d'bgb c'bc'd'|be'e'd' bgga|d'bc'b gbd'b|dgc'd' agec'|d'bc'a  (3bag ag|feed BGG|
